icon-themes/breeze_svg/framework/res/info_26.svg

<svg height="32" width="32" xmlns="http://www.w3.org/2000/svg" xmlns:xlink="http://www.w3.org/1999/xlink"><linearGradient id="a" gradientTransform="matrix(.92857108 0 0 .92857057 28.612354 37.986142)" gradientUnits="userSpaceOnUse" x1="400.57144" x2="400.57144" y1="545.79797" y2="517.79797"><stop offset="0" stop-color="#197cf1"/><stop offset="1" stop-color="#20bcfa"/></linearGradient><linearGradient id="b" gradientUnits="userSpaceOnUse" x1="16" x2="16" y1="29.999973" y2="2"><stop offset="0" stop-color="#7cbaf8"/><stop offset="1" stop-color="#f4fcff"/></linearGradient><linearGradient id="c" gradientUnits="userSpaceOnUse" x1="9.000011" x2="23.000042" y1="9" y2="23"><stop offset="0" stop-color="#292c2f"/><stop offset="1" stop-opacity="0"/></linearGradient><g transform="translate(-384.57143 -515.798)"><rect fill="url(#a)" height="26" ry="12.999993" width="26" x="387.57144" y="518.79797"/><path d="m17 9-2 2 2 2-2 10 8 8h3 3 2v-4-4z" fill="url(#c)" fill-rule="evenodd" opacity=".2" transform="translate(384.57143 515.798)"/><path d="m16 2c-7.5871509 0-13.7108671 5.9794391-13.9746094 13.5-.0058692.16736-.0253906.331158-.0253906.5 0 7.756003 6.2439968 14 14 14 7.756003 0 14-6.243997 14-14 0-.168842-.01952-.33264-.02539-.5-.263743-7.5205609-6.387459-13.5-13.97461-13.5zm0 1c7.201993 0 13 5.7980074 13 13 0 7.201993-5.798007 13-13 13-7.2019926 0-13-5.798007-13-13 0-7.2019926 5.7980074-13 13-13zm-1 6v2h2v-2zm0 4v10h2v-10z" fill="url(#b)" transform="translate(384.57143 515.798)"/></g></svg>

<?xml version="1.0" encoding="UTF-8" standalone="no"?>
<!-- Created with Inkscape (http://www.inkscape.org/) -->

<svg
   xmlns:dc="http://purl.org/dc/elements/1.1/"
   xmlns:cc="http://creativecommons.org/ns#"
   xmlns:rdf="http://www.w3.org/1999/02/22-rdf-syntax-ns#"
   xmlns:svg="http://www.w3.org/2000/svg"
   xmlns="http://www.w3.org/2000/svg"
   xmlns:xlink="http://www.w3.org/1999/xlink"
   xmlns:sodipodi="http://sodipodi.sourceforge.net/DTD/sodipodi-0.dtd"
   xmlns:inkscape="http://www.inkscape.org/namespaces/inkscape"
   width="32"
   height="32"
   id="svg5453"
   version="1.1"
   inkscape:version="0.91+devel r"
   sodipodi:docname="help-about.svg">
  <defs
     id="defs5455">
    <linearGradient
       inkscape:collect="always"
       id="linearGradient4143">
      <stop
         style="stop-color:#197cf1;stop-opacity:1"
         offset="0"
         id="stop4145" />
      <stop
         style="stop-color:#20bcfa;stop-opacity:1"
         offset="1"
         id="stop4147" />
    </linearGradient>
    <linearGradient
       inkscape:collect="always"
       xlink:href="#linearGradient4143"
       id="linearGradient4149"
       x1="400.57144"
       y1="545.79797"
       x2="400.57144"
       y2="517.79797"
       gradientUnits="userSpaceOnUse"
       gradientTransform="matrix(0.92857108,0,0,0.92857057,28.612354,37.986142)" />
    <linearGradient
       inkscape:collect="always"
       id="linearGradient4290">
      <stop
         style="stop-color:#7cbaf8;stop-opacity:1"
         offset="0"
         id="stop4292" />
      <stop
         style="stop-color:#f4fcff;stop-opacity:1"
         offset="1"
         id="stop4294" />
    </linearGradient>
    <linearGradient
       inkscape:collect="always"
       xlink:href="#linearGradient4290"
       id="linearGradient4144"
       x1="16"
       y1="29.999973"
       x2="16"
       y2="2"
       gradientUnits="userSpaceOnUse" />
    <linearGradient
       id="linearGradient4227"
       inkscape:collect="always">
      <stop
         id="stop4229"
         offset="0"
         style="stop-color:#292c2f;stop-opacity:1" />
      <stop
         id="stop4231"
         offset="1"
         style="stop-color:#000000;stop-opacity:0;" />
    </linearGradient>
    <linearGradient
       inkscape:collect="always"
       xlink:href="#linearGradient4227"
       id="linearGradient4191"
       x1="9.0000114"
       y1="9"
       x2="23.000042"
       y2="23"
       gradientUnits="userSpaceOnUse" />
  </defs>
  <sodipodi:namedview
     id="base"
     pagecolor="#ffffff"
     bordercolor="#666666"
     borderopacity="1.0"
     inkscape:pageopacity="0"
     inkscape:pageshadow="2"
     inkscape:zoom="16.95593"
     inkscape:cx="18.008895"
     inkscape:cy="16.699656"
     inkscape:document-units="px"
     inkscape:current-layer="layer1"
     showgrid="true"
     fit-margin-top="0"
     fit-margin-left="0"
     fit-margin-right="0"
     fit-margin-bottom="0"
     inkscape:window-width="1366"
     inkscape:window-height="670"
     inkscape:window-x="-4"
     inkscape:window-y="29"
     inkscape:window-maximized="1"
     inkscape:showpageshadow="false"
     borderlayer="true"
     showguides="true">
    <inkscape:grid
       type="xygrid"
       id="grid4063" />
    <sodipodi:guide
       position="1.1650391e-05,2.6367188e-05"
       orientation="0,32"
       id="guide4159" />
    <sodipodi:guide
       position="32.000012,2.6367188e-05"
       orientation="-32,0"
       id="guide4161" />
    <sodipodi:guide
       position="32.000012,32.000026"
       orientation="0,-32"
       id="guide4163" />
    <sodipodi:guide
       position="2.0000117,30.000026"
       orientation="28,0"
       id="guide4167" />
    <sodipodi:guide
       position="2.0000117,2.0000264"
       orientation="0,28"
       id="guide4169" />
    <sodipodi:guide
       position="30.000012,2.0000264"
       orientation="-1,-8.0000141e-07"
       id="guide4171" />
    <sodipodi:guide
       position="30.000012,30.000026"
       orientation="0,-28"
       id="guide4173" />
    <sodipodi:guide
       position="2.0000117,30.000026"
       orientation="28,0"
       id="guide4181" />
    <sodipodi:guide
       position="2.0000117,2.0000264"
       orientation="0,14"
       id="guide4183" />
    <sodipodi:guide
       position="16.000012,2.0000264"
       orientation="-28,0"
       id="guide4185" />
    <sodipodi:guide
       position="16.000012,30.000026"
       orientation="0,-14"
       id="guide4187" />
    <sodipodi:guide
       position="9.0000117,23.000026"
       orientation="14,0"
       id="guide4193" />
    <sodipodi:guide
       position="9.0000117,9.0000264"
       orientation="0,14.000031"
       id="guide4195" />
    <sodipodi:guide
       position="23.000042,9.0000264"
       orientation="-14,0"
       id="guide4197" />
    <sodipodi:guide
       position="23.000042,23.000026"
       orientation="0,-14.000031"
       id="guide4199" />
  </sodipodi:namedview>
  <metadata
     id="metadata5458">
    <rdf:RDF>
      <cc:Work
         rdf:about="">
        <dc:format>image/svg+xml</dc:format>
        <dc:type
           rdf:resource="http://purl.org/dc/dcmitype/StillImage" />
        <dc:title />
      </cc:Work>
    </rdf:RDF>
  </metadata>
  <g
     inkscape:label="Capa 1"
     inkscape:groupmode="layer"
     id="layer1"
     transform="translate(-384.57143,-515.798)">
    <rect
       style="opacity:1;fill:url(#linearGradient4149);fill-opacity:1;stroke:none"
       id="rect4130"
       width="26"
       height="26"
       x="387.57144"
       y="518.79797"
       ry="12.999993" />
    <path
       style="fill:url(#linearGradient4191);fill-rule:evenodd;stroke:none;stroke-width:1px;stroke-linecap:butt;stroke-linejoin:miter;stroke-opacity:1;fill-opacity:1;opacity:0.2"
       d="M 17 9 L 15 11 L 17 13 L 15 23 L 23 31 L 26 31 L 29 31 L 31 31 L 31 27 L 31 23 L 17 9 z "
       transform="translate(384.57143,515.798)"
       id="path4184" />
    <path
       style="opacity:1;fill:url(#linearGradient4144);fill-opacity:1;stroke:none"
       d="M 16,2 C 8.4128491,2 2.2891329,7.9794391 2.0253906,15.5 2.0195214,15.66736 2,15.831158 2,16 c 0,7.756003 6.2439968,14 14,14 7.756003,0 14,-6.243997 14,-14 0,-0.168842 -0.01952,-0.33264 -0.02539,-0.5 C 29.710867,7.9794391 23.587151,2 16,2 Z m 0,1 C 23.201993,3 29,8.7980074 29,16 29,23.201993 23.201993,29 16,29 8.7980074,29 3,23.201993 3,16 3,8.7980074 8.7980074,3 16,3 Z m -1,6 0,2 2,0 0,-2 z m 0,4 0,10 2,0 0,-10 z"
       transform="translate(384.57143,515.798)"
       id="rect4133"
       inkscape:connector-curvature="0"
       sodipodi:nodetypes="sssssssssssscccccccccc" />
  </g>
</svg>
